polaris-icons/icons/new-icons/EmailNewsletterMajor.svg

<svg width="20" height="20" viewBox="0 0 20 20" fill="none" xmlns="http://www.w3.org/2000/svg">
<path d="M8.5 6.5C8.08579 6.5 7.75 6.83579 7.75 7.25C7.75 7.66421 8.08579 8 8.5 8H11.5C11.9142 8 12.25 7.66421 12.25 7.25C12.25 6.83579 11.9142 6.5 11.5 6.5H8.5Z" fill="#4A4A4A"/>
<path fill-rule="evenodd" clip-rule="evenodd" d="M8 3.5C6.48122 3.5 5.25 4.73122 5.25 6.25V6.75H3.5C2.94772 6.75 2.5 7.19772 2.5 7.75V13.75C2.5 15.2688 3.73122 16.5 5.25 16.5H14.75C16.2688 16.5 17.5 15.2688 17.5 13.75V7.75C17.5 7.19772 17.0523 6.75 16.5 6.75H14.75V6.25C14.75 4.73122 13.5188 3.5 12 3.5H8ZM10 11.3486L6.75 9.18195V6.25C6.75 5.55964 7.30964 5 8 5H12C12.6904 5 13.25 5.55964 13.25 6.25V9.18195L10 11.3486ZM16 9.15139V13.75C16 14.4404 15.4404 15 14.75 15H5.25C4.55964 15 4 14.4404 4 13.75V9.15139L10 13.1514L16 9.15139Z" fill="#4A4A4A"/>
</svg>

<svg viewBox="0 0 20 20" xmlns="http://www.w3.org/2000/svg"><path d="M8.5 6.5a.75.75 0 0 0 0 1.5h3a.75.75 0 0 0 0-1.5h-3Z" fill="#5C5F62"/><path fill-rule="evenodd" d="M8 3.5a2.75 2.75 0 0 0-2.75 2.75v.5h-1.75a1 1 0 0 0-1 1v6a2.75 2.75 0 0 0 2.75 2.75h9.5a2.75 2.75 0 0 0 2.75-2.75v-6a1 1 0 0 0-1-1h-1.75v-.5a2.75 2.75 0 0 0-2.75-2.75h-4Zm2 7.849-3.25-2.167v-2.932c0-.69.56-1.25 1.25-1.25h4c.69 0 1.25.56 1.25 1.25v2.932l-3.25 2.167Zm6-2.198v4.599c0 .69-.56 1.25-1.25 1.25h-9.5c-.69 0-1.25-.56-1.25-1.25v-4.599l6 4 6-4Z" fill="#5C5F62"/></svg>
